icons/src/svg/document_ppt.svg

<svg width="32" height="32" viewBox="0 0 32 32" fill="none" xmlns="http://www.w3.org/2000/svg">
<path fill-rule="evenodd" clip-rule="evenodd" d="M10 4C10 2.89543 10.8954 2 12 2H19.5858C20.1162 2 20.6249 2.21071 21 2.58579L29.4142 11C29.7893 11.3751 30 11.8838 30 12.4142V28C30 29.1046 29.1046 30 28 30H25C24.4477 30 24 29.5523 24 29C24 28.4477 24.4477 28 25 28H28V13H21C19.8954 13 19 12.1046 19 11V4H12V18C12 18.5523 11.5523 19 11 19C10.4477 19 10 18.5523 10 18V4ZM21 5.41421V11H26.5858L21 5.41421Z" fill="#0D0F13"/>
<path d="M5.984 21.48C6.496 21.48 6.956 21.596 7.364 21.828C7.772 22.06 8.088 22.384 8.312 22.8C8.544 23.216 8.66 23.688 8.66 24.216C8.66 24.744 8.544 25.216 8.312 25.632C8.088 26.048 7.772 26.372 7.364 26.604C6.956 26.836 6.496 26.952 5.984 26.952H3.692V30H2V21.48H5.984ZM6.956 24.096C6.956 23.672 6.832 23.352 6.584 23.136C6.336 22.912 6.012 22.8 5.612 22.8H3.692V25.632H5.612C6.004 25.632 6.324 25.52 6.572 25.296C6.828 25.072 6.956 24.752 6.956 24.336V24.096Z" fill="#0D0F13"/>
<path d="M13.6513 21.48C14.1633 21.48 14.6233 21.596 15.0313 21.828C15.4393 22.06 15.7553 22.384 15.9793 22.8C16.2113 23.216 16.3273 23.688 16.3273 24.216C16.3273 24.744 16.2113 25.216 15.9793 25.632C15.7553 26.048 15.4393 26.372 15.0313 26.604C14.6233 26.836 14.1633 26.952 13.6513 26.952H11.3593V30H9.66734V21.48H13.6513ZM14.6233 24.096C14.6233 23.672 14.4993 23.352 14.2513 23.136C14.0033 22.912 13.6793 22.8 13.2793 22.8H11.3593V25.632H13.2793C13.6713 25.632 13.9913 25.52 14.2393 25.296C14.4953 25.072 14.6233 24.752 14.6233 24.336V24.096Z" fill="#0D0F13"/>
<path d="M19.1012 22.8H16.7012V21.48H23.2172V22.8H20.7932V30H19.1012V22.8Z" fill="#0D0F13"/>
</svg>

<svg xmlns="http://www.w3.org/2000/svg" viewBox="0 0 32 32">
    <path d="M10 4c0-1.1.9-2 2-2h7.59c.53 0 1.04.21 1.41.59L29.41 11c.38.38.59.88.59 1.41V28a2 2 0 0 1-2 2h-3c-.55 0-1-.45-1-1s.45-1 1-1h3V13h-7a2 2 0 0 1-2-2V4h-7v14c0 .55-.45 1-1 1s-1-.45-1-1V4Zm11 1.41V11h5.59L21 5.41ZM5.98 21.48c.51 0 .97.12 1.38.35.41.23.72.56.95.97.23.42.35.89.35 1.42s-.12 1-.35 1.42c-.22.42-.54.74-.95.97s-.87.35-1.38.35H3.69v3.05H2v-8.52h3.98Zm.97 2.62c0-.42-.12-.74-.37-.96a1.41 1.41 0 0 0-.97-.34H3.69v2.83h1.92c.39 0 .71-.11.96-.34.26-.22.38-.54.38-.96v-.24Zm6.7-2.62c.51 0 .97.12 1.38.35.41.23.72.56.95.97.23.42.35.89.35 1.42s-.12 1-.35 1.42c-.22.42-.54.74-.95.97s-.87.35-1.38.35h-2.29v3.05H9.67v-8.52h3.98Zm.97 2.62c0-.42-.12-.74-.37-.96a1.41 1.41 0 0 0-.97-.34h-1.92v2.83h1.92c.39 0 .71-.11.96-.34.26-.22.38-.54.38-.96v-.24Zm4.48-1.3h-2.4v-1.32h6.52v1.32H20.8V30h-1.69v-7.2Z" fill="currentColor" fill-rule="evenodd"/>
</svg>
